facebook.svg

<?xml version="1.0" encoding="UTF-8"?>
<svg viewBox="0 0 24 24" version="1.1" xmlns="http://www.w3.org/2000/svg" xmlns:xlink="http://www.w3.org/1999/xlink">
    <title>Facebook</title>
    <rect id="Rectangle" fill="#0766FF" x="0" y="0" width="24" height="24" rx="4"></rect>
    <path d="M17.3736,12 L13.45392,12 L13.45392,10.70304 C13.45392,8.76528 14.21424,8.01984 16.18176,8.01984 C16.7928,8.01984 17.2848,8.03472 17.568,8.06448 L17.568,4.74048 C17.03136,4.5912 15.71952,4.4424 14.9592,4.4424 C10.94928,4.4424 9.1008,6.33552 9.1008,10.41984 L9.1008,12 L6.6264,12 L6.6264,15.6672 L9.1008,15.6672 L9.1008,24 L11.99952,24 L13.45392,24 L13.45344,15.6672 L16.70016,15.6672 L17.3736,12 Z" id="Path-Copy" fill="#FFFFFF"></path>
</svg>

<svg viewBox="0 0 24 24" xmlns="http://www.w3.org/2000/svg"><rect fill="#0766FF" width="24" height="24" rx="4"/><path d="M17.374 12h-3.92v-1.297c0-1.938.76-2.683 2.728-2.683.61 0 1.103.015 1.386.044V4.74c-.537-.149-1.848-.298-2.609-.298-4.01 0-5.858 1.894-5.858 5.978V12H6.626v3.667h2.475V24h4.353v-8.333H16.7L17.374 12Z" fill="#FFF"/></svg>
